src/pos-icons/drawing.svg

<svg height="24" viewBox="0 0 24 24" width="24" xmlns="http://www.w3.org/2000/svg"><path d="m8.5 3a5.5 5.5 0 0 1 5.5 5.5c0 1.33-.47 2.55-1.26 3.5h8.26v9h-9v-8.26c-.95.79-2.17 1.26-3.5 1.26a5.5 5.5 0 0 1 -5.5-5.5 5.5 5.5 0 0 1 5.5-5.5z"/></svg>

<?xml version="1.0" encoding="UTF-8"?><!DOCTYPE svg PUBLIC "-//W3C//DTD SVG 1.1//EN" "http://www.w3.org/Graphics/SVG/1.1/DTD/svg11.dtd"><svg xmlns="http://www.w3.org/2000/svg" xmlns:xlink="http://www.w3.org/1999/xlink" version="1.1" id="mdi-drawing" width="24" height="24" viewBox="0 0 24 24"><path d="M8.5,3A5.5,5.5 0 0,1 14,8.5C14,9.83 13.53,11.05 12.74,12H21V21H12V12.74C11.05,13.53 9.83,14 8.5,14A5.5,5.5 0 0,1 3,8.5A5.5,5.5 0 0,1 8.5,3Z" /></svg>
